findly-builder/apps/searchassist/src/assets/images/pricing-plan/new-plan-pricing-img/enterprise-plan-icon.svg

<svg width="14" height="14" viewBox="0 0 14 14" fill="none" xmlns="http://www.w3.org/2000/svg">
<g clip-path="url(#clip0_286_60285)">
<path d="M1.16634 9.33464V12.2146C1.16634 12.8796 2.99451 13.418 5.24967 13.418C7.50484 13.418 9.33301 12.879 9.33301 12.2146V9.33464M5.24967 2.91797C2.67251 2.91797 0.583008 3.44005 0.583008 4.08464C0.583008 4.72922 2.67251 5.2513 5.24967 5.2513M0.583008 4.08464V7.0013C0.583008 7.59222 2.67251 8.16797 5.24967 8.16797M9.33301 9.33464C11.5637 9.33464 13.4163 8.75889 13.4163 8.16797V2.33464M5.33951 2.33464V8.2648M5.24967 5.2513C5.24967 5.84222 7.14726 6.41797 9.37792 6.41797C11.608 6.41797 13.4163 5.84222 13.4163 5.2513M9.33301 9.33464C9.33301 8.69005 7.50484 8.16797 5.24967 8.16797C2.99451 8.16797 1.16634 8.69005 1.16634 9.33464C1.16634 9.97922 2.99451 10.5013 5.24967 10.5013C7.50484 10.5013 9.33301 9.97922 9.33301 9.33464ZM13.4163 2.33464C13.4163 1.69005 11.608 1.16797 9.37792 1.16797C7.14726 1.16797 5.33951 1.69005 5.33951 2.33464C5.33951 2.97922 7.14784 3.5013 9.37792 3.5013C11.608 3.5013 13.4163 2.97922 13.4163 2.33464Z" stroke="#44474C" stroke-width="1.5"/>
</g>
<defs>
<clipPath id="clip0_286_60285">
<rect width="14" height="14" fill="white"/>
</clipPath>
</defs>
</svg>

<svg width="14" height="14" fill="none" xmlns="http://www.w3.org/2000/svg"><g clip-path="url(#a)"><path d="M1.166 9.335v2.88c0 .665 1.829 1.203 4.084 1.203s4.083-.539 4.083-1.203v-2.88M5.25 2.918c-2.577 0-4.667.522-4.667 1.167 0 .644 2.09 1.166 4.667 1.166M.583 4.085V7c0 .591 2.09 1.167 4.667 1.167m4.083 1.167c2.23 0 4.083-.576 4.083-1.167V2.335m-8.076 0v5.93M5.25 5.25c0 .591 1.897 1.167 4.128 1.167 2.23 0 4.038-.576 4.038-1.167M9.333 9.335c0-.645-1.828-1.167-4.083-1.167s-4.084.522-4.084 1.167c0 .644 1.829 1.166 4.084 1.166s4.083-.522 4.083-1.166Zm4.083-7c0-.645-1.808-1.167-4.038-1.167-2.23 0-4.038.522-4.038 1.167 0 .644 1.808 1.166 4.038 1.166 2.23 0 4.038-.522 4.038-1.166Z" stroke="#44474C" stroke-width="1.5"/></g><defs><clipPath id="a"><path fill="#fff" d="M0 0h14v14H0z"/></clipPath></defs></svg>
